!!!OTL: Tagelied
!!!ARE: Europa, Mitteleuropa, Deutschland
!!!SCT: A0112
!!!YEM: Copyright 1995, estate of Helmut Schaffrath.
**kern
*ICvox
*Ivox
*M4/2
*k[b-e-]
*g:
{4g
=1
2b-
2b-
2cc
2cc
=2
1dd
2dd
4r}
{4dd
=3
2gg
2gg
2ffn
2dd
=4
4.ffn
8ee-
4dd
4cc
2b-
4r}
{4b-
=5
2.ffn
4ee
2dd
2cc
=6
4b-
4a
2g
2fn
4r}
{4ee-
=7
2.dd
4cc
2b-
2a
=8
2g
2cc
4.b-
8a
4g
4f#
=9
2g
2a
2.g}
==
!!!AGN: Romanze, Ballade, Lied
!! Joh. Ott 1534 No. 92.
!!!ONB: ESAC (Essen Associative Code) Database: ALTDEU
!!!AMT: simple quadruple
!!!AIN: vox
!!!EED: Helmut Schaffrath
!!!EEV: 1.0
*-
